src/assets/icons/linkedin_line.svg

<svg  viewBox="0 0 24 24" fill="none" xmlns="http://www.w3.org/2000/svg">
<path d="M6.51791 6.00619V6.46727M6.51791 18.2629V9.32376M17.4809 18.2629V12.9212C17.4791 11.8877 17.0678 10.897 16.3369 10.1662C15.6061 9.43541 14.6155 9.02407 13.582 9.02229C12.5473 9.02229 11.5549 9.43286 10.8226 10.1639C10.0904 10.8948 9.67812 11.8865 9.67635 12.9212M9.67635 12.9212V18.2629M9.67635 12.9212V9.32376M6.38464 22H17.6154C20.037 22 22 20.0369 22 17.6154V6.38463C22 3.96307 20.037 2 17.6154 2H6.38464C3.96307 2 2 3.96307 2 6.38463V17.6154C2 20.0369 3.96307 22 6.38464 22Z" stroke="currentColor" stroke-linecap="round" stroke-linejoin="round"/>
</svg>

<svg  viewBox="0 0 24 24" fill="none" xmlns="http://www.w3.org/2000/svg">
    <path stroke="currentColor" stroke-linecap="round" stroke-linejoin="round"   d="M6.518 6.006v.461m0 11.796v-8.94m10.963 8.94V12.92a3.905 3.905 0 0 0-3.899-3.899 3.906 3.906 0 0 0-3.906 3.9m0 0v5.34m0-5.34V9.323M6.385 22h11.23A4.385 4.385 0 0 0 22 17.615V6.385A4.385 4.385 0 0 0 17.615 2H6.385A4.385 4.385 0 0 0 2 6.385v11.23A4.385 4.385 0 0 0 6.385 22Z"/>
</svg>
